X: 9
T:Bobbing Joe
M:6/8
L:1/8
Q:105
S:Badby Dance from Mike Garland
K:Em
E|E2B B2A| BcB AGF| E2F G2A |B2G E:||;F| FAF D3| FAF DEF| E2 F G2 A| B2G
 E2:|
